images/ICONOS/EXPERIENCIA/GESTION RRHH ICON.svg

<svg width="44" height="42" viewBox="0 0 44 42" fill="none" xmlns="http://www.w3.org/2000/svg">
<path d="M39.1239 26.1301C40.0475 29.1404 39.7258 31.8787 37.9804 34.208C39.5776 35.9318 41.11 37.5895 42.647 39.2448C42.8854 39.5025 43.1401 39.7461 43.3901 39.9897C43.9039 40.491 44.3137 41.049 43.6702 41.6993C43.0683 42.3071 42.5567 41.8814 42.0892 41.4085C40.4989 39.8005 38.9063 38.1948 37.3138 36.5892C37.0406 36.3149 36.7605 36.0501 36.4504 35.7474C34.4296 37.0196 32.3162 37.6793 29.9458 37.1047C28.1125 36.6602 26.5524 35.7568 25.4575 34.2056C24.932 33.4583 24.3695 33.2763 23.5362 33.2786C16.284 33.307 9.0318 33.2952 1.7796 33.2928C0.0828626 33.2928 -0.0606538 33.203 0.0157339 31.498C0.112955 29.2681 -0.0050991 26.953 0.550448 24.8343C1.52266 21.1146 4.03188 18.6931 7.78876 17.8253C8.3119 17.7047 9.0156 17.6952 9.44383 17.9577C12.7054 19.9488 16.0294 19.6248 19.314 18.2036C20.6288 17.6337 21.7029 17.7094 22.9251 18.3124C23.3371 18.5158 24.0293 18.4496 24.4575 18.2296C25.6889 17.5959 26.7769 17.1584 28.2421 17.8064C30.0199 18.5938 31.925 18.3266 33.7768 17.6787C34.3671 17.4729 35.1448 17.4469 35.7258 17.6574C38.6309 18.712 40.316 21.2612 40.3137 24.3353C40.3114 25.2244 40.2258 26.0001 39.1239 26.1301ZM26.5315 22.6256C25.0153 21.746 23.5223 20.8923 22.0432 20.015C21.395 19.6295 20.821 19.6532 20.1034 19.9393C16.6798 21.3108 13.1753 21.9682 9.71003 20.2018C8.51329 19.5917 7.52025 19.6839 6.48323 20.2869C5.78648 20.6913 5.09436 21.1524 4.51567 21.7105C1.78423 24.34 1.7796 27.7594 1.89996 31.2899C9.23318 31.2899 16.5016 31.2899 23.7654 31.2899C24.0246 25.9693 24.0246 25.9693 26.5315 22.6256ZM25.6102 29.1333C25.6056 32.5929 28.3371 35.395 31.6865 35.3643C35.0083 35.3336 37.7119 32.581 37.7351 29.2042C37.7582 25.7636 35.043 22.9307 31.6981 22.9047C28.3556 22.8763 25.6149 25.6832 25.6102 29.1333ZM38.2906 24.2313C38.4619 22.1905 37.2328 20.3319 35.2744 19.5539C34.9573 19.4285 34.5198 19.4214 34.1981 19.535C31.8532 20.3697 29.5315 20.346 27.1889 19.5184C26.8024 19.3812 26.3301 19.4995 25.8973 19.4995C26.4528 20.2562 27.0639 20.6724 27.5801 21.1879C28.0222 21.6324 28.3996 21.6963 28.9945 21.4906C32.2166 20.3815 35.0476 21.1075 37.4781 23.5242C37.7073 23.7489 37.9642 23.9475 38.2906 24.2313Z" fill="url(#paint0_linear_1_1964)"/>
<path d="M22.9529 8.18436C22.9575 12.753 19.4367 16.3379 14.9646 16.3213C10.5827 16.3048 7.01331 12.6986 6.97859 8.24821C6.93924 3.7931 10.5873 0.0237603 14.9576 0.000113201C19.3465 -0.0235339 22.9459 3.66068 22.9529 8.18436ZM8.94615 8.15835C8.92532 11.6321 11.6012 14.3917 14.99 14.3941C18.3071 14.3964 21.0362 11.6534 21.0686 8.28604C21.1011 4.8052 18.4576 2.04322 15.0618 2.01484C11.6452 1.9841 8.96698 4.67514 8.94615 8.15835Z" fill="url(#paint1_linear_1_1964)"/>
<path d="M30.7907 17.026C27.7422 17 25.3973 14.5714 25.4181 11.4571C25.439 8.39955 27.9111 5.88823 30.8764 5.91188C33.786 5.93553 36.33 8.5769 36.2999 11.5422C36.2652 14.6022 33.8046 17.052 30.7907 17.026ZM34.3277 11.4926C34.3231 9.46603 32.793 7.91478 30.8092 7.92424C28.8324 7.9337 27.2931 9.50623 27.3024 11.5091C27.3116 13.4766 28.9111 15.1059 30.8347 15.1059C32.7745 15.1035 34.3323 13.4931 34.3277 11.4926Z" fill="url(#paint2_linear_1_1964)"/>
<defs>
<linearGradient id="paint0_linear_1_1964" x1="0" y1="42.001" x2="44" y2="42.001" gradientUnits="userSpaceOnUse">
<stop stop-color="#1723FF"/>
<stop offset="1" stop-color="#30E35E"/>
</linearGradient>
<linearGradient id="paint1_linear_1_1964" x1="0" y1="42.001" x2="44" y2="42.001" gradientUnits="userSpaceOnUse">
<stop stop-color="#1723FF"/>
<stop offset="1" stop-color="#30E35E"/>
</linearGradient>
<linearGradient id="paint2_linear_1_1964" x1="0" y1="42.001" x2="44" y2="42.001" gradientUnits="userSpaceOnUse">
<stop stop-color="#1723FF"/>
<stop offset="1" stop-color="#30E35E"/>
</linearGradient>
</defs>
</svg>

<svg xmlns="http://www.w3.org/2000/svg" width="44" height="42" fill="none"><path fill="url(#a)" d="M39.124 26.13c.923 3.01.602 5.749-1.144 8.078 1.598 1.724 3.13 3.382 4.667 5.037.238.258.493.501.743.745.514.501.924 1.059.28 1.71-.602.607-1.113.181-1.58-.292-1.591-1.608-3.184-3.213-4.776-4.819-.273-.274-.553-.539-.864-.842-2.02 1.273-4.134 1.932-6.504 1.358-1.834-.445-3.394-1.348-4.489-2.9-.525-.747-1.088-.929-1.92-.926-7.253.028-14.505.016-21.757.014-1.697 0-1.84-.09-1.764-1.795.097-2.23-.021-4.545.534-6.664.973-3.72 3.482-6.14 7.239-7.009.523-.12 1.227-.13 1.655.133 3.261 1.99 6.585 1.667 9.87.246 1.315-.57 2.389-.495 3.611.108.412.204 1.104.138 1.532-.082 1.232-.634 2.32-1.072 3.785-.424 1.778.788 3.683.52 5.535-.127.59-.206 1.368-.232 1.949-.022 2.905 1.055 4.59 3.604 4.588 6.678-.003.89-.088 1.665-1.19 1.795ZM26.53 22.626c-1.516-.88-3.009-1.734-4.488-2.611-.648-.386-1.222-.362-1.94-.076-3.423 1.372-6.928 2.03-10.393.263-1.197-.61-2.19-.518-3.227.085-.697.404-1.389.865-1.967 1.424C1.784 24.34 1.78 27.758 1.9 31.29h21.865c.26-5.32.26-5.32 2.767-8.664Zm-.92 6.507c-.005 3.46 2.726 6.262 6.075 6.231 3.322-.03 6.026-2.783 6.05-6.16.022-3.44-2.693-6.273-6.038-6.3-3.342-.028-6.083 2.78-6.088 6.23Zm12.68-4.902c.17-2.04-1.058-3.9-3.017-4.677a1.66 1.66 0 0 0-1.076-.019c-2.345.835-4.666.811-7.01-.017-.386-.137-.858-.018-1.29-.018.555.756 1.166 1.172 1.682 1.688.442.444.82.508 1.415.303 3.222-1.11 6.053-.383 8.483 2.033.23.225.486.424.813.707Z"/><path fill="url(#b)" d="M22.953 8.184c.005 4.569-3.516 8.154-7.988 8.137-4.382-.016-7.952-3.622-7.986-8.073C6.939 3.793 10.587.024 14.958 0c4.388-.024 7.988 3.66 7.995 8.184ZM8.946 8.158c-.02 3.474 2.655 6.234 6.044 6.236 3.317.002 6.046-2.74 6.079-6.108.032-3.48-2.611-6.243-6.007-6.271-3.417-.03-6.095 2.66-6.116 6.143Z"/><path fill="url(#c)" d="M30.79 17.026c-3.048-.026-5.393-2.455-5.372-5.569.021-3.057 2.493-5.569 5.458-5.545 2.91.024 5.454 2.665 5.424 5.63-.035 3.06-2.495 5.51-5.51 5.484Zm3.538-5.533c-.005-2.027-1.535-3.578-3.519-3.569-1.977.01-3.516 1.582-3.507 3.585.01 1.968 1.61 3.597 3.533 3.597 1.94-.002 3.497-1.613 3.493-3.613Z"/><defs><linearGradient id="a" x1="0" x2="44" y1="42.001" y2="42.001" gradientUnits="userSpaceOnUse"><stop stop-color="#1723FF"/><stop offset="1" stop-color="#30E35E"/></linearGradient><linearGradient id="b" x1="0" x2="44" y1="42.001" y2="42.001" gradientUnits="userSpaceOnUse"><stop stop-color="#1723FF"/><stop offset="1" stop-color="#30E35E"/></linearGradient><linearGradient id="c" x1="0" x2="44" y1="42.001" y2="42.001" gradientUnits="userSpaceOnUse"><stop stop-color="#1723FF"/><stop offset="1" stop-color="#30E35E"/></linearGradient></defs></svg>
